img/popular-1.svg

<svg xmlns="http://www.w3.org/2000/svg" width="97" height="55" viewBox="0 0 97 55"><g fill="#363636"><path d="M84.131 32.639v-12.636c0-1.309 1.045-2.37 2.335-2.37l8.326 1.581v-8.194c0-2.355-1.708-3.431-4.202-4.265l-23.187-6.58c1.616 1.391 1.889 2.04 1.889 4.396v45.209c0 2.356-.45 4.066-1.967 5.21l23.265-7.065c2.401-.833 4.202-4.216 4.202-6.572v-7.913l-8.326 1.567c-1.29.002-2.335-1.06-2.335-2.368zM95.129 20.979l-7.598-1.444c-1.008 0-1.824.829-1.824 1.851v9.868c0 1.023.816 1.852 1.824 1.852l7.598-1.431c1.154-.419 1.824-.829 1.824-1.852v-6.993c0-1.022-.766-1.507-1.824-1.851zm-27.959-16.496c0-5.08-4.232-4.459-4.232-4.459s-57.106 4.714-60.1 5.121l-2.837 4.387-.001 36.28c0 3.743 2.599 3.753 2.599 3.753l16.477 1.403 8.136-11.668s1.109-1.828 2.505-1.828c1.397 0 2.432 1.861 2.432 1.861l9.061 13.521s18.895 1.909 22.521 1.909c3.626-.001 3.439-5.024 3.439-5.024v-45.256zm-54.188 32.709c-3.698 0-6.696-4.601-6.696-10.275s2.998-10.275 6.696-10.275c3.698 0 6.696 4.601 6.696 10.275s-2.998 10.275-6.696 10.275zm36.158 1.426c-4.662 0-8.441-5.239-8.441-11.701 0-6.463 3.78-11.702 8.441-11.702 4.662 0 8.442 5.239 8.442 11.702 0 6.462-3.78 11.701-8.442 11.701z"/></g></svg>

<svg xmlns="http://www.w3.org/2000/svg" width="97" height="55" viewBox="0 0 97 55">
    <g fill="#363636">
        <path d="M84.131 32.639V20.003c0-1.309 1.045-2.37 2.335-2.37l8.326 1.581V11.02c0-2.355-1.708-3.431-4.202-4.265L67.403.175c1.616 1.391 1.889 2.04 1.889 4.396V49.78c0 2.356-.45 4.066-1.967 5.21l23.265-7.065c2.401-.833 4.202-4.216 4.202-6.572V33.44l-8.326 1.567c-1.29.002-2.335-1.06-2.335-2.368z"/>
        <path d="M95.129 20.979l-7.598-1.444c-1.008 0-1.824.829-1.824 1.851v9.868c0 1.023.816 1.852 1.824 1.852l7.598-1.431c1.154-.419 1.824-.829 1.824-1.852V22.83c0-1.022-.766-1.507-1.824-1.851zM67.17 4.483c0-5.08-4.232-4.459-4.232-4.459S5.832 4.738 2.838 5.145.001 9.532.001 9.532L0 45.812c0 3.743 2.599 3.753 2.599 3.753l16.477 1.403L27.212 39.3s1.109-1.828 2.505-1.828c1.397 0 2.432 1.861 2.432 1.861l9.061 13.521s18.895 1.909 22.521 1.909c3.626-.001 3.439-5.024 3.439-5.024V4.483zM12.982 37.192c-3.698 0-6.696-4.601-6.696-10.275s2.998-10.275 6.696-10.275c3.698 0 6.696 4.601 6.696 10.275s-2.998 10.275-6.696 10.275zm36.158 1.426c-4.662 0-8.441-5.239-8.441-11.701 0-6.463 3.78-11.702 8.441-11.702 4.662 0 8.442 5.239 8.442 11.702 0 6.462-3.78 11.701-8.442 11.701z"/>
    </g>
</svg>
